X:1
T:Title
%%score { ( 1 4 ) | ( 2 3 ) }
L:1/8
M:4/4
K:Eb
V:1 treble nm="Grand Piano"
V:4 treble 
V:2 bass 
V:3 bass 
V:1
 z4 z2[Q:1/4=100] E>G | B2 c2 B2 G>[GB] | [Ge]2 [Ae]2 [Ge]2 [GB]>[Ac] | [GB]2 [EG]2 [EG]FEF | %4
[M:3/4] [EG]4 F2 |[M:1/4] E>G |[M:4/4] B2 c2 B2 G>[GB] | [Ge]2 [Ae]2 [Ge]2 [GB]>[Ge] | %8
 .[Ad]2 [B,GB][CFA] [EG]2 [A,DF]2 |[M:3/4] [G,E]6 |[M:1/4] [B,GB]>[Ge] |[M:4/4] [Ad]6 z2 | %12
 [Ge]6 z2 | d2 B2 dc[DFB][E=A] |[M:3/4] [DB]6 |[M:1/4] [B,GB]>[Ge] |[M:4/4] [Ad]6 z2 | [Ge]6 z2 | %18
 dcBA G2 [DF]2 |[M:3/4] E6 |] %20
V:2
 z4 z2 [E,G,]>[E,B,E] | [E,G,E]2 [E,A,E]2 [E,G,E]2 [E,B,E]>[E,B,] | %2
 [E,B,]2 [A,C]2 [E,B,]2 [E,E]>[E,E] | [E,E]2 [E,B,]2 z DG,=A, |[M:3/4] z2 z2 D2 | %5
[M:1/4] [E,G,]>[E,B,E] |[M:4/4] [E,G,E]2 [E,A,E]2 [E,G,E]2 [E,B,E]>[E,B,] | %7
 [E,B,]2 [A,C]2 [E,B,]2 [E,B,]>[E,B,] | z[K:treble] cG,[K:bass]A, B,2 B,,2 |[M:3/4] E,6 | %10
[M:1/4] E,>[E,B,] |[M:4/4] [F,B,]2 B,,2 F,2 [B,,B,]>[B,,B,] | [E,B,]2 B,,2 E,2 E,>[E,B,] | %13
 [F,B,F]2 [F,DF]2 [F,F]-[F,EF] z C |[M:3/4] B,,2 D,F, B,2 |[M:1/4] E,>[E,B,] | %16
[M:4/4] [F,B,]2 B,,2 F,2 [B,,B,]>[B,,B,] | [E,B,]2 B,,2 E,2 E,>[E,B,] | %18
 [F,A,]2[K:treble] [G,B,G][A,CF][K:bass] [B,E]2 [B,,A,]2 |[M:3/4] [E,G,]6 |] %20
V:3
 x8 | x8 | x8 | z4 [C,C]2 [C,C]2 |[M:3/4] B,,6 |[M:1/4] x2 |[M:4/4] x8 | x8 | %8
 [F,A,]2[K:treble] z2[K:bass] z4 |[M:3/4] x6 |[M:1/4] x2 |[M:4/4] x8 | x8 | z4 .B,2 F,2 | %14
[M:3/4] x6 |[M:1/4] x2 |[M:4/4] x8 | x8 | x2[K:treble] x2[K:bass] x4 |[M:3/4] x6 |] %20
V:4
 x8 | x8 | x8 | x8 |[M:3/4] B,6 |[M:1/4] x2 |[M:4/4] x8 | x8 | x8 |[M:3/4] x6 |[M:1/4] x2 | %11
[M:4/4] z2 B,2 B,2 [Ac]>[Ad] | z2 B,2 B,2 [EGB]>[Ge] | x8 |[M:3/4] B,4 z2 |[M:1/4] x2 | %16
[M:4/4] z2 B,2 B,2 [Ac]>[Ad] | z2 B,2 B,2 [EGB]>[Ge] | A2 z2 z4 |[M:3/4] x6 |] %20

